packages/dnb-ui-lib/assets/icons/view_medium.svg

<svg width="25" height="24" viewBox="0 0 25 24" fill="none" xmlns="http://www.w3.org/2000/svg">
<path fill-rule="evenodd" clip-rule="evenodd" d="M23.3787 10.3804C20.6989 7.434 16.3442 4.43357 11.9998 4.5009C7.65546 4.43357 3.30076 7.43398 0.623707 10.3807L0.623702 10.3807L0.621565 10.383C-0.205234 11.3009 -0.205234 12.695 0.621561 13.613L0.623553 13.6151C3.24046 16.4974 7.58352 19.5664 11.9998 19.4981C16.4161 19.5664 20.7601 16.4975 23.3789 13.6154L23.3811 13.613C24.2079 12.695 24.2079 11.3009 23.3811 10.383L23.3787 10.3804ZM1.7352 12.6081C1.42357 12.2611 1.42355 11.735 1.73516 11.388C4.29755 8.56805 8.27433 5.93826 11.9872 6.00089C11.9956 6.00103 12.004 6.00103 12.0125 6.00089C15.7252 5.93826 19.702 8.5679 22.2676 11.3881C22.579 11.735 22.5791 12.2609 22.2676 12.6078C19.7569 15.3706 15.7913 18.0617 12.0124 17.9981L12.0014 17.998L11.9872 17.9981C8.20841 18.0617 4.24386 15.3706 1.7352 12.6081ZM12.0002 8.999C12.796 8.99878 13.5593 9.31488 14.1219 9.87767C14.6845 10.4405 15.0004 11.2038 15 11.9996L15.75 12L15 11.9998C14.9996 13.6565 13.6562 14.9993 11.9995 14.999C10.3427 14.9987 8.99985 13.6555 9 11.9987C9.00015 10.342 10.3433 8.999 12 8.999H12.0002ZM15.1827 8.81715C16.0267 9.66138 16.5006 10.8064 16.5 12.0002L12 7.499C13.1938 7.49873 14.3387 7.97291 15.1827 8.81715ZM11.9992 16.499C14.4843 16.4994 16.4992 14.4854 16.5 12.0004L11.9998 7.499C9.51477 7.49911 7.50022 9.51354 7.5 11.9986C7.49978 14.4837 9.51408 16.4986 11.9992 16.499Z" fill="black"/>
</svg>

<svg width="24" height="24" viewBox="0 0 25 24" fill="none" xmlns="http://www.w3.org/2000/svg"><path fill-rule="evenodd" clip-rule="evenodd" d="M23.379 10.38c-2.68-2.946-7.035-5.946-11.38-5.88C7.656 4.435 3.302 7.435.625 10.38l-.002.003a2.413 2.413 0 000 3.23l.002.002C3.24 16.497 7.584 19.566 12 19.498c4.416.068 8.76-3 11.379-5.883l.002-.002a2.413 2.413 0 000-3.23l-.002-.003zM1.735 12.608a.913.913 0 010-1.22c2.563-2.82 6.54-5.45 10.252-5.387h.025c3.713-.063 7.69 2.567 10.256 5.387a.913.913 0 010 1.22c-2.511 2.763-6.477 5.454-10.256 5.39h-.025c-3.779.064-7.743-2.627-10.252-5.39zM12 9a2.999 2.999 0 013 3l.75.001H15a3 3 0 11-3-3.001zm3.183-.182A4.499 4.499 0 0116.5 12L12 7.5c1.194 0 2.339.474 3.183 1.318zM11.999 16.5A4.5 4.5 0 0016.5 12L12 7.5a4.5 4.5 0 000 9z" fill="#000"/></svg>
